X: 4902
T: Brand New, The
R: strathspey
M: 4/4
K: Gmajor
G|D<EE>G B<dd>B|A>GB<A G>EE<G|D<EE>G B<dd>B|A>GB<D E2 EG|
D>EG<A B<dd>B|A>GA<B G<E G2|D>EG<A B<dd>B|A>GA<B E2 E>A||
B<dd>A B<ee>d|d<BB>A G<EE>A|B<dd>A B<ee>f|g<ed<f B<ee>f|
gee>g d<BB>c|d<BA<B G<EG>E|D<GG>A B<de>f|g<ef>d e2 e||

